X:0234
T:A Trip to Clumber.
T:For the Ger. Flute.
M:2/4
L:1/8
Q:1/4=132
I: :: :: ::
Z:Jack Campin * www.campin.me.uk * 2009
K:G
d2 dg|g2  fg |ec'/a/ gf      |g/f/g/a/ gg |\
d2 dg|g2  fg |ec'/a/ gf      |g2       G2:|
d2 Bd|dc  AF |GD     EF      |G/F/G/A/ GG |\
d2 Bd|dc  AF |GD     EF      |G2       G2:|
b2 bg|c'2 c'2|af     fd      |g/f/g/a/ gg |\
b2 bg|c'2 c'2|ag     f/g/a/f/|g2       g2:|
<end>
<start>
